icons/solid/star.svg

<svg width="24" height="24" viewBox="0 0 24 24" fill="none" xmlns="http://www.w3.org/2000/svg">
<path fill-rule="evenodd" clip-rule="evenodd" d="M12.8967 2.55743C12.7283 2.2161 12.3806 2 12 2C11.6194 2 11.2717 2.2161 11.1033 2.55743L8.6909 7.44542L3.29669 8.22924C2.92 8.28398 2.60706 8.54782 2.48943 8.90983C2.37181 9.27184 2.4699 9.66924 2.74248 9.93493L6.64576 13.7397L5.72432 19.1121C5.65998 19.4873 5.8142 19.8664 6.12215 20.0902C6.43009 20.3139 6.83835 20.3434 7.17527 20.1663L12 17.6298L16.8247 20.1663C17.1616 20.3434 17.5699 20.3139 17.8779 20.0902C18.1858 19.8664 18.34 19.4873 18.2757 19.1121L17.3542 13.7397L21.2575 9.93493C21.5301 9.66924 21.6282 9.27184 21.5106 8.90983C21.3929 8.54782 21.08 8.28398 20.7033 8.22924L15.3091 7.44542L12.8967 2.55743Z" fill="currentColor"/>
</svg>

<svg width="24" height="24" fill="none" xmlns="http://www.w3.org/2000/svg"><path fill-rule="evenodd" clip-rule="evenodd" d="M12.897 2.557a1 1 0 00-1.794 0L8.691 7.445l-5.394.784a1 1 0 00-.555 1.706l3.904 3.805-.922 5.372a1 1 0 001.451 1.054L12 17.63l4.825 2.536a1 1 0 001.45-1.054l-.92-5.372 3.902-3.805a1 1 0 00-.554-1.706l-5.394-.784-2.412-4.888z" fill="currentColor"/></svg>
